X:054 
T:East Part of Kerry* (polka), The
F:file ID: cre.5/054east_pk
B:CRE5.091 (gan ainm)
N:No repeats in source.
M:2/4
L:1/16
Q:120
R:polka
K:D
FAGB A2f2|f2e2 e2d2|FAGB A2A2|EFGB A2A2|
FAGB A2f2|f2e2 e2d2|FAGB A2A2|cAce d4:|
FAdf a2a2|FAdg f2f2|FAdf e2e2|EcBc d2d2|
FAdf a2a2|FAdg f2f2|FAdf e2e2|EcBc d4:|

%%%

